X: 34900
T: Roche's
R: slide
M: 12/8
K: Dmajor
|f2 e dcB A2 F G2 B|A2 F G2 A B2 A A2 e|f2 e dcB A2 F G2 B|A2 F GFE D3 D3:|
F2 A d2 f a3 agf|g3 gfe f2 d A2 G|F2 A d2 f a3 agf|g3 f2 e dfe d3:|

